Sources/FrostedUI/Resources/Icons.xcassets/microphone16.imageset/microphone-16.svg

<svg width="16" height="16" viewBox="0 0 16 16" fill="none" xmlns="http://www.w3.org/2000/svg" data-fui-icon="true">
  <path
    d="M14 6.25C14.4142 6.25 14.75 6.58579 14.75 7C14.75 10.3977 12.2395 13.2073 8.97236 13.6787C8.84623 13.6969 8.75 13.8035 8.75 13.9309V14.25C8.75 14.3881 8.86193 14.5 9 14.5H10.25C10.6642 14.5 11 14.8358 11 15.25C11 15.6642 10.6642 16 10.25 16H5.75C5.33579 16 5 15.6642 5 15.25C5 14.8358 5.33579 14.5 5.75 14.5H7C7.13807 14.5 7.25 14.3881 7.25 14.25V13.9309C7.25 13.8035 7.15377 13.6969 7.02764 13.6787C3.76052 13.2073 1.25 10.3977 1.25 7C1.25 6.58579 1.58579 6.25 2 6.25C2.41421 6.25 2.75 6.58579 2.75 7C2.75 9.8995 5.10051 12.25 8 12.25C10.8995 12.25 13.25 9.8995 13.25 7C13.25 6.58579 13.5858 6.25 14 6.25ZM8 1C10.2091 1 12 2.79086 12 5V7C12 9.20914 10.2091 11 8 11C5.85996 11 4.11211 9.31944 4.00488 7.20605L4 7V5C4 2.79086 5.79086 1 8 1ZM8 2.5C6.61929 2.5 5.5 3.61929 5.5 5V7C5.5 8.38071 6.61929 9.5 8 9.5C9.38071 9.5 10.5 8.38071 10.5 7V5C10.5 3.61929 9.38071 2.5 8 2.5Z"
    fill="currentColor"
  />
</svg>

<svg xmlns="http://www.w3.org/2000/svg" width="16" height="16" fill="none" data-fui-icon="true" viewBox="0 0 16 16"><path fill="currentColor" d="M14 6.25a.75.75 0 0 1 .75.75 6.75 6.75 0 0 1-5.778 6.679.26.26 0 0 0-.222.252v.319c0 .138.112.25.25.25h1.25a.75.75 0 0 1 0 1.5h-4.5a.75.75 0 0 1 0-1.5H7a.25.25 0 0 0 .25-.25v-.32a.26.26 0 0 0-.222-.251A6.75 6.75 0 0 1 1.25 7a.75.75 0 0 1 1.5 0 5.25 5.25 0 1 0 10.5 0 .75.75 0 0 1 .75-.75M8 1a4 4 0 0 1 4 4v2a4 4 0 0 1-7.995.206L4 7V5a4 4 0 0 1 4-4m0 1.5A2.5 2.5 0 0 0 5.5 5v2a2.5 2.5 0 0 0 5 0V5A2.5 2.5 0 0 0 8 2.5"/></svg>
